X: 731
T: Daduan lianluo
%%abc-version 2.0
%%abcx-abcm2ps-target-version 5.9.1 (29 Sep 2008)
%%abc-creator hum2abc beta
%%abcx-conversion-date 2013/10/02 07:52:30
%%abc-edited-by Helmut Schaffrath
%%humdrum-veritas 3495136326
%%humdrum-veritas-data 2681616507
%%continueall 1
%%barnumbers 0
L: 1/8
M: 2/4
K: G
d2d2 [I:setbarnb 1]| 
e d B A | 
G F E G | 
A4 | 
d2d2 | 
e d B A | 
G F E G | 
A4 | 
A Bd2 | 
e d B A | 
G2d2 | 
G2F E | 
D D D E | 
F2A E | 
D4 | 
A B A G | 
F2E2 | 
D D D E | 
F2A E | 
D4 |]  



